images/expect/2.svg

<svg width="37" height="35" viewBox="0 0 37 35" fill="none" xmlns="http://www.w3.org/2000/svg">
<g clip-path="url(#clip0)">
<path d="M26.9935 24.0929C26.4554 23.4146 25.6009 22.9785 24.6443 22.9785H18.9398C17.7001 22.9785 16.5096 22.663 15.4962 22.0684C14.0432 21.2158 11.7003 20.0709 8.78873 19.4588C6.15992 18.9055 3.98606 19.6938 2.4586 20.6365C0.933271 21.5779 0.0421035 22.679 -0.035667 22.7774L26.9935 24.0929ZM26.9935 24.0929L31.736 18.9245C32.7289 17.6741 34.344 16.9143 36.0306 16.9143H36.3976C36.6642 16.9143 36.9169 17.0413 37.0671 17.2592M26.9935 24.0929L37.0671 17.2592M37.0671 17.2592C37.2184 17.4783 37.2428 17.7574 37.1311 17.9983L37.131 17.9985L32.6874 27.5514C31.6888 29.699 29.6589 31.3158 27.2609 31.883L27.2609 31.883L26.4917 32.0647M37.0671 17.2592L26.4917 32.0647M26.4917 32.0647L21.9561 33.7809L21.9561 33.7809C20.8136 34.2131 19.5948 34.428 18.3771 34.428C17.063 34.428 15.7488 34.1775 14.5309 33.6764L8.82638 31.3306L8.82634 31.3306C6.78101 30.489 4.61822 29.9559 2.39802 29.7459L2.41685 29.5468L2.39801 29.7459L0.524762 29.5687C0.524734 29.5687 0.524706 29.5687 0.524678 29.5687L26.4917 32.0647ZM1.40694 28.1039V23.5221C2.09498 22.7708 4.77571 20.1935 8.44565 20.9635C11.1374 21.5299 13.3105 22.5911 14.6586 23.3823L14.6586 23.3823C15.9272 24.1266 17.4079 24.5187 18.9401 24.5187H24.6446C25.3907 24.5187 25.9788 25.0906 25.9788 25.77C25.9788 26.4494 25.3904 27.0213 24.6446 27.0213H16.6856C15.5008 27.0213 14.3302 27.2008 13.2092 27.5541C13.209 27.5542 13.2088 27.5542 13.2086 27.5543L13.1791 27.5634L12.9814 27.6243L13.049 27.8198L13.2363 28.3619L13.236 28.362L13.2407 28.3735L13.4622 28.9054L13.5325 29.0743L13.707 29.0193C14.6689 28.7161 15.6712 28.5622 16.6856 28.5622H24.6446C26.2517 28.5622 27.5788 27.3256 27.5846 25.7805L32.9736 19.9053L32.9785 19.9L32.9829 19.8944C33.5089 19.2311 34.2674 18.7626 35.1098 18.5625L31.2207 26.9232L31.2207 26.9232C30.4257 28.6336 28.8024 29.9311 26.8763 30.3867L26.8762 30.3867L26.0554 30.5811C26.0553 30.5811 26.0552 30.5811 26.055 30.5812C26.0202 30.5893 25.9864 30.5996 25.9534 30.6118L25.9521 30.6123L21.3671 32.3472L21.4379 32.5342L21.3671 32.3472C19.3835 33.0978 17.1228 33.0662 15.164 32.2605L15.164 32.2605L9.45978 29.9147C7.26238 29.011 4.93954 28.4381 2.55573 28.2127L1.40694 28.1039Z" fill="url(#paint0_linear)" stroke="url(#paint1_linear)" stroke-width="0.4"/>
<path d="M20.5497 16.3539L20.5493 16.3537C20.3661 16.2666 20.2217 16.1142 20.1501 15.9259L20.1499 15.9254C20.123 15.854 19.8348 15.0691 19.772 14.0219C19.7092 12.9751 19.8706 11.6444 20.7684 10.5077C22.0741 8.85407 24.4991 8.14516 27.8939 8.32409L20.5497 16.3539ZM20.5497 16.3539C21.712 16.9036 22.7815 17.1854 23.747 17.1854M20.5497 16.3539L23.747 17.1854M23.747 17.1854C24.556 17.1854 25.2892 16.9873 25.936 16.5873C27.4527 15.6505 28.1244 13.7941 28.4231 12.1952C28.7237 10.586 28.6579 9.17529 28.6515 9.05439L23.747 17.1854ZM28.6515 9.05426C28.6304 8.6517 28.295 8.345 27.8941 8.3241L28.6515 9.05426ZM26.66 12.7148C26.3568 13.8203 25.8549 14.8052 25.0668 15.2922C24.2482 15.7978 23.0898 15.7686 21.571 15.1124C21.4814 14.7843 21.3593 14.2153 21.3658 13.5726C21.373 12.8669 21.5349 12.0883 22.0483 11.438C22.8899 10.3727 24.5408 9.80982 27.0563 9.8381C27.0386 10.6298 26.9373 11.7042 26.66 12.7148Z" fill="url(#paint2_linear)" stroke="url(#paint3_linear)" stroke-width="0.4"/>
<path d="M17.2272 9.28897C17.4197 9.22218 17.58 9.08636 17.6727 8.90703L17.6727 8.90697C18.8123 6.70028 18.9221 4.81429 17.8935 3.35442C16.8041 1.80757 14.666 1.1388 12.8242 0.848797C10.9683 0.556577 9.34363 0.638763 9.20781 0.646071L9.2078 0.64607L9.20734 0.646096C8.806 0.668628 8.47197 0.976675 8.45197 1.37889L8.45196 1.37906C8.28018 4.89265 9.12234 7.39042 11.0321 8.71425L11.0322 8.71428C12.1531 9.49084 13.431 9.71228 14.5249 9.71228C15.9788 9.71228 17.134 9.32158 17.2272 9.28897ZM17.2272 9.28897C17.2271 9.28901 17.227 9.28904 17.2269 9.28907L17.1614 9.10011M17.2272 9.28897C17.2273 9.28893 17.2274 9.2889 17.2275 9.28887L17.1614 9.10011M17.1614 9.10011C17.0803 9.1285 15.9484 9.51228 14.5249 9.51228C13.4558 9.51228 12.2224 9.29559 11.146 8.54988L9.21855 0.845782C9.47937 0.831749 15.6527 0.520086 17.73 3.46962C18.6973 4.84257 18.618 6.64075 17.495 8.8152C17.4267 8.94737 17.3073 9.04952 17.1614 9.10011ZM16.5632 4.21724L16.5632 4.21725C17.1733 5.0835 17.1495 6.31086 16.3807 7.92749C16.0063 8.02505 15.3246 8.16817 14.5462 8.17088C13.7014 8.17382 12.7606 8.01147 11.9724 7.46521C10.6934 6.57855 10.0192 4.82688 10.036 2.16726C10.9641 2.16968 12.2533 2.26034 13.4717 2.54583C14.7886 2.8544 15.9731 3.37932 16.5632 4.21724Z" fill="url(#paint4_linear)" stroke="url(#paint5_linear)" stroke-width="0.4"/>
<path d="M19.16 24.315L19.159 24.315C18.7405 24.2775 18.4092 23.9309 18.4316 23.5086L19.16 24.315ZM19.16 24.315C19.1835 24.317 19.2082 24.3184 19.2341 24.3184M19.16 24.315L19.2341 24.3184M12.5726 5.75744L12.5726 5.75742C12.1698 5.59062 11.9724 5.13635 12.1567 4.73749L12.5726 5.75744ZM12.5726 5.75744C15.6275 7.02188 17.2054 9.94621 17.9854 13.1002C18.7636 16.247 18.7354 19.5783 18.6109 21.589M12.5726 5.75744L18.6109 21.589M13.2089 4.34285L13.2089 4.34287C17.0043 5.91365 19.3576 9.81267 20.0649 15.5347C20.0957 15.7826 20.1226 16.0287 20.1463 16.2723C21.8121 12.8029 24.0873 11.5399 24.2549 11.451M13.2089 4.34285L25.0373 12.7962C25.0374 12.7962 25.0374 12.7962 25.0374 12.7962C25.4204 12.59 25.5648 12.1194 25.3418 11.7431L25.3414 11.7425C25.1212 11.3738 24.6353 11.248 24.2549 11.451M13.2089 4.34285C12.8116 4.17858 12.3378 4.34565 12.1567 4.73746L13.2089 4.34285ZM24.2549 11.451L24.3486 11.6277L24.2543 11.4514C24.2545 11.4512 24.2547 11.4511 24.2549 11.451ZM19.2341 24.3184C19.6217 24.3184 19.9709 24.047 20.0284 23.6554L19.2341 24.3184ZM18.6109 21.589C18.5282 22.1956 18.4673 22.835 18.4316 23.5086L18.6109 21.589Z" fill="url(#paint6_linear)" stroke="url(#paint7_linear)" stroke-width="0.4"/>
</g>
<defs>
<linearGradient id="paint0_linear" x1="4.62549" y1="17.1143" x2="6.67102" y2="35.5411" gradientUnits="userSpaceOnUse">
<stop offset="0.103646" stop-color="#F09642"/>
<stop offset="1" stop-color="#F0DF42"/>
</linearGradient>
<linearGradient id="paint1_linear" x1="6.16715" y1="17.1143" x2="12.2094" y2="36.1651" gradientUnits="userSpaceOnUse">
<stop stop-color="#F09642"/>
<stop offset="1" stop-color="#F0DF42"/>
</linearGradient>
<linearGradient id="paint2_linear" x1="21.0227" y1="8.49707" x2="23.1193" y2="17.2469" gradientUnits="userSpaceOnUse">
<stop offset="0.103646" stop-color="#F09642"/>
<stop offset="1" stop-color="#F0DF42"/>
</linearGradient>
<linearGradient id="paint3_linear" x1="21.377" y1="8.49707" x2="26.2246" y2="15.5779" gradientUnits="userSpaceOnUse">
<stop stop-color="#F09642"/>
<stop offset="1" stop-color="#F0DF42"/>
</linearGradient>
<linearGradient id="paint4_linear" x1="9.85146" y1="0.829956" x2="11.782" y2="9.88198" gradientUnits="userSpaceOnUse">
<stop offset="0.103646" stop-color="#F09642"/>
<stop offset="1" stop-color="#F0DF42"/>
</linearGradient>
<linearGradient id="paint5_linear" x1="10.2586" y1="0.829956" x2="14.9853" y2="8.58714" gradientUnits="userSpaceOnUse">
<stop stop-color="#F09642"/>
<stop offset="1" stop-color="#F0DF42"/>
</linearGradient>
<linearGradient id="paint6_linear" x1="13.9075" y1="4.47986" x2="20.7832" y2="23.3852" gradientUnits="userSpaceOnUse">
<stop offset="0.103646" stop-color="#F09642"/>
<stop offset="1" stop-color="#F0DF42"/>
</linearGradient>
<linearGradient id="paint7_linear" x1="14.4475" y1="4.47986" x2="26.4689" y2="16.0487" gradientUnits="userSpaceOnUse">
<stop stop-color="#F09642"/>
<stop offset="1" stop-color="#F0DF42"/>
</linearGradient>
<clipPath id="clip0">
<rect width="37" height="35" fill="white" transform="translate(0.000488281)"/>
</clipPath>
</defs>
</svg>

<svg width="37" height="35" fill="none" xmlns="http://www.w3.org/2000/svg"><g clip-path="url(#a)" stroke-width=".4"><path d="M26.994 24.093a2.992 2.992 0 0 0-2.35-1.114H18.94c-1.24 0-2.43-.316-3.444-.91-1.453-.853-3.796-1.998-6.707-2.61-2.63-.553-4.803.235-6.33 1.178-1.526.94-2.417 2.042-2.495 2.14l27.03 1.316Zm0 0 4.742-5.169c.993-1.25 2.608-2.01 4.295-2.01h.367c.266 0 .519.127.67.345m-10.074 6.834 10.073-6.834m0 0c.151.22.176.498.064.74l-4.444 9.552c-.998 2.148-3.028 3.765-5.426 4.332l-.77.182m10.576-14.806L26.492 32.065m0 0-4.536 1.716a10.134 10.134 0 0 1-3.579.647c-1.314 0-2.628-.25-3.846-.752l-5.705-2.345a22.427 22.427 0 0 0-6.428-1.585l.019-.2-.019.2-1.873-.177 25.967 2.496ZM1.407 28.104v-4.582c.688-.751 3.369-3.328 7.039-2.558 2.691.566 4.864 1.627 6.213 2.418 1.268.745 2.749 1.137 4.281 1.137h5.705c.746 0 1.334.572 1.334 1.251 0 .68-.589 1.251-1.334 1.251h-7.96c-1.184 0-2.355.18-3.476.533l-.03.01-.198.06.068.196.187.542.005.012.221.531.07.17.175-.056a9.897 9.897 0 0 1 2.979-.457h7.959c1.607 0 2.934-1.236 2.94-2.782l5.389-5.875.005-.005.004-.006a3.85 3.85 0 0 1 2.127-1.331l-3.89 8.36c-.794 1.71-2.418 3.008-4.344 3.464l-.82.194h-.001a.845.845 0 0 0-.102.03v.001l-4.586 1.735.07.187-.07-.187a8.534 8.534 0 0 1-6.203-.087L9.46 29.916a24.1 24.1 0 0 0-6.904-1.702l-1.15-.11Z" fill="url(#b)" stroke="url(#c)"/><path d="M20.55 16.354a.786.786 0 0 1-.4-.428 7.022 7.022 0 0 1-.378-1.904c-.063-1.047.099-2.378.996-3.514 1.306-1.654 3.731-2.363 7.126-2.184l-7.344 8.03Zm0 0c1.162.55 2.232.831 3.197.831m-3.197-.831 3.197.831m0 0c.809 0 1.542-.198 2.189-.598 1.517-.937 2.188-2.793 2.487-4.392.3-1.609.235-3.02.229-3.14l-4.905 8.13Zm4.904-8.13c-.02-.403-.356-.71-.757-.73l.758.73Zm-1.991 3.66c-.303 1.105-.805 2.09-1.593 2.577-.819.506-1.977.477-3.496-.18a5.783 5.783 0 0 1-.205-1.54c.007-.705.169-1.484.682-2.134.842-1.065 2.493-1.628 5.008-1.6-.017.792-.119 1.866-.396 2.877Z" fill="url(#d)" stroke="url(#e)"/><path d="M17.227 9.289a.791.791 0 0 0 .446-.382c1.14-2.207 1.25-4.093.22-5.553C16.805 1.808 14.666 1.14 12.825.85A18.834 18.834 0 0 0 9.208.646c-.402.023-.736.33-.756.733-.172 3.514.67 6.011 2.58 7.335 1.121.777 2.399.998 3.493.998 1.454 0 2.609-.39 2.702-.423Zm0 0L17.16 9.1m.066.189-.066-.189m0 0a8.75 8.75 0 0 1-2.636.412c-1.07 0-2.303-.216-3.379-.962L9.219.846C9.479.832 15.653.52 17.73 3.47c.967 1.373.888 3.17-.235 5.345a.592.592 0 0 1-.334.285Zm-.598-4.883c.61.867.587 2.094-.182 3.71a7.594 7.594 0 0 1-1.835.244c-.845.003-1.785-.16-2.574-.706-1.279-.886-1.953-2.638-1.936-5.298.928.003 2.217.093 3.436.379 1.317.308 2.501.833 3.091 1.671Z" fill="url(#f)" stroke="url(#g)"/><path d="M19.16 24.315h-.001c-.418-.038-.75-.384-.727-.806l.728.806Zm0 0a.87.87 0 0 0 .074.003m-.074-.003.074.003m-6.661-18.56a.759.759 0 0 1-.416-1.02l.416 1.02Zm0 0c3.054 1.264 4.632 4.188 5.412 7.342.779 3.147.75 6.478.626 8.489M12.573 5.757 18.61 21.59M13.209 4.343c3.795 1.57 6.149 5.47 6.856 11.192.03.248.058.494.081.737 1.666-3.47 3.941-4.732 4.109-4.821M13.209 4.343l11.828 8.453a.754.754 0 0 0 .305-1.053.822.822 0 0 0-1.087-.292M13.209 4.343c-.397-.164-.871.003-1.052.394l1.052-.394Zm11.046 7.108.094.177-.095-.177Zm-5.02 12.867a.793.793 0 0 0 .793-.663l-.794.663Zm-.624-2.729a23.362 23.362 0 0 0-.18 1.92l.18-1.92Z" fill="url(#h)" stroke="url(#i)"/></g><defs><linearGradient id="b" x1="4.625" y1="17.114" x2="6.671" y2="35.541" gradientUnits="userSpaceOnUse"><stop offset=".104" stop-color="#F09642"/><stop offset="1" stop-color="#F0DF42"/></linearGradient><linearGradient id="c" x1="6.167" y1="17.114" x2="12.209" y2="36.165" gradientUnits="userSpaceOnUse"><stop stop-color="#F09642"/><stop offset="1" stop-color="#F0DF42"/></linearGradient><linearGradient id="d" x1="21.023" y1="8.497" x2="23.119" y2="17.247" gradientUnits="userSpaceOnUse"><stop offset=".104" stop-color="#F09642"/><stop offset="1" stop-color="#F0DF42"/></linearGradient><linearGradient id="e" x1="21.377" y1="8.497" x2="26.225" y2="15.578" gradientUnits="userSpaceOnUse"><stop stop-color="#F09642"/><stop offset="1" stop-color="#F0DF42"/></linearGradient><linearGradient id="f" x1="9.851" y1=".83" x2="11.782" y2="9.882" gradientUnits="userSpaceOnUse"><stop offset=".104" stop-color="#F09642"/><stop offset="1" stop-color="#F0DF42"/></linearGradient><linearGradient id="g" x1="10.259" y1=".83" x2="14.985" y2="8.587" gradientUnits="userSpaceOnUse"><stop stop-color="#F09642"/><stop offset="1" stop-color="#F0DF42"/></linearGradient><linearGradient id="h" x1="13.908" y1="4.48" x2="20.783" y2="23.385" gradientUnits="userSpaceOnUse"><stop offset=".104" stop-color="#F09642"/><stop offset="1" stop-color="#F0DF42"/></linearGradient><linearGradient id="i" x1="14.447" y1="4.48" x2="26.469" y2="16.049" gradientUnits="userSpaceOnUse"><stop stop-color="#F09642"/><stop offset="1" stop-color="#F0DF42"/></linearGradient><clipPath id="a"><path fill="#fff" d="M0 0h37v35H0z"/></clipPath></defs></svg>
